X:155
T:Polska efter Carl Gudmundsäter
O:Dalarna
Z:Transcribed to abc by Jon Magnusson 080411
R:Polska
M:3/4
L:1/8
K:G
(3:2:4 G2BGB2 G>B|(3:2:4 E2cEc2 B>A|(3 D2F2A2 d>D|(3 D2F2A2 d>A|(3:2:4 G2BGB2 G>B|
(3:2:4 E2cEc2 B>A|(3 D2F2A2 d>F| G2 G4:||:(3:2:4 d2cBd2 g>f|(3:2:4 e2dcB2 c>D|(3 D2F2A2 d>c
(3:2:4 B2AGe2 d2|(3:2:4 d2cBd2 g>f|(3:2:4 e2dce2 a>g|(3:2:4 f2edf2 b>a|g2 g4:|
(:musicend:)

Alternativ tolkning utan kort etta (generellt):

(:music:)
